packages/core/src/svgs/ator.svg

<svg width="24" height="24" viewBox="0 0 24 24" fill="none" xmlns="http://www.w3.org/2000/svg">
<g clip-path="url(#clip0_31_6331)">
<path d="M0 0H24V24H0V0Z" fill="url(#paint0_linear_31_6331)"/>
<path fill-rule="evenodd" clip-rule="evenodd" d="M12 16.7145C13.2503 16.7145 14.4494 16.2178 15.3335 15.3337C16.2176 14.4496 16.7143 13.2505 16.7143 12.0002C16.7143 10.7499 16.2176 9.55081 15.3335 8.66671C14.4494 7.78261 13.2503 7.28592 12 7.28592C10.7497 7.28592 9.55056 7.78261 8.66646 8.66671C7.78236 9.55081 7.28568 10.7499 7.28568 12.0002C7.28568 13.2505 7.78236 14.4496 8.66646 15.3337C9.55056 16.2178 10.7497 16.7145 12 16.7145ZM12 18.8574C13.8186 18.8574 15.5627 18.1349 16.8487 16.8489C18.1347 15.563 18.8571 13.8188 18.8571 12.0002C18.8571 10.1816 18.1347 8.43744 16.8487 7.15148C15.5627 5.86551 13.8186 5.14307 12 5.14307C10.1813 5.14307 8.4372 5.86551 7.15123 7.15148C5.86527 8.43744 5.14282 10.1816 5.14282 12.0002C5.14282 13.8188 5.86527 15.563 7.15123 16.8489C8.4372 18.1349 10.1813 18.8574 12 18.8574Z" fill="url(#paint1_linear_31_6331)"/>
<path d="M15.9943 14.5071C16.0885 14.55 16.1871 14.5714 16.2857 14.5714L16.5771 14.58C17.4128 14.6229 18.6471 14.6786 18.8357 12.57C18.8485 12.3814 18.8571 12.1929 18.8571 12H16.7143C16.7143 12.9214 16.4485 13.7829 15.9943 14.5071ZM5.48568 14.1429C5.77282 14.4 6.20997 14.5714 6.85711 14.5714C7.28568 14.5714 7.65425 14.5286 7.97568 14.4557C7.52336 13.7166 7.28453 12.8666 7.28568 12H5.14282C5.14282 12.75 5.26282 13.47 5.48568 14.1429Z" fill="#005257"/>
<path d="M15.3771 13.7445C16.6928 14.4902 18.5828 14.4473 18.7928 12.9516C18.9266 11.9812 18.851 10.9933 18.5709 10.0546C18.2909 9.11582 17.8129 8.24798 17.1693 7.50947C16.5256 6.77097 15.7312 6.17895 14.8395 5.77328C13.9479 5.36762 12.9796 5.15771 12 5.15771C11.0203 5.15771 10.0521 5.36762 9.16039 5.77328C8.26871 6.17895 7.47429 6.77097 6.83064 7.50947C6.18699 8.24798 5.70905 9.11582 5.429 10.0546C5.14894 10.9933 5.07328 11.9812 5.20711 12.9516C5.41711 14.4473 7.30711 14.4945 8.62282 13.7445C9.65197 13.1587 10.8158 12.8507 12 12.8507C13.1841 12.8507 14.348 13.1587 15.3771 13.7445Z" fill="url(#paint2_linear_31_6331)"/>
<path d="M9 12C7.62857 11.6571 6.42857 9.85714 6 9V10.9286L7.71429 13.2857L9 12Z" fill="#005560"/>
<path d="M16.02 11.593C16.3285 11.7516 16.7057 11.5373 16.6457 11.1988C16.4541 10.0994 15.8787 9.10364 15.0219 8.38864C14.1652 7.67364 13.0825 7.28575 11.9666 7.29398C10.8507 7.30221 9.77394 7.70602 8.9278 8.43358C8.08166 9.16113 7.52104 10.1653 7.34568 11.2673C7.28997 11.593 7.64568 11.803 7.93711 11.653C9.1957 11.0166 10.5897 10.6945 12 10.7145C13.4914 10.7145 14.8628 11.0059 16.02 11.593ZM18.7928 12.9516C18.5828 14.4473 16.6928 14.4945 15.3771 13.7445C14.348 13.1587 13.1841 12.8507 12 12.8507C10.8158 12.8507 9.65197 13.1587 8.62282 13.7445C7.30711 14.4902 5.41711 14.4473 5.20711 12.9516C5.07328 11.9812 5.14894 10.9933 5.429 10.0546C5.70905 9.11582 6.18699 8.24798 6.83064 7.50947C7.47429 6.77097 8.26871 6.17895 9.16039 5.77328C10.0521 5.36762 11.0203 5.15771 12 5.15771C12.9796 5.15771 13.9479 5.36762 14.8395 5.77328C15.7312 6.17895 16.5256 6.77097 17.1693 7.50947C17.8129 8.24798 18.2909 9.11582 18.5709 10.0546C18.851 10.9933 18.9266 11.9812 18.7928 12.9516Z" fill="url(#paint3_linear_31_6331)"/>
</g>
<defs>
<linearGradient id="paint0_linear_31_6331" x1="4.46571" y1="4.16143" x2="29.2071" y2="32.58" gradientUnits="userSpaceOnUse">
<stop stop-color="#1A1E21"/>
<stop offset="1" stop-color="#06060A"/>
</linearGradient>
<linearGradient id="paint1_linear_31_6331" x1="7.49997" y1="6.85735" x2="16.5" y2="17.3574" gradientUnits="userSpaceOnUse">
<stop stop-color="#025A63"/>
<stop offset="0.56" stop-color="#026E7A"/>
<stop offset="1" stop-color="#065270"/>
</linearGradient>
<linearGradient id="paint2_linear_31_6331" x1="8.57139" y1="6.42875" x2="16.9285" y2="13.5002" gradientUnits="userSpaceOnUse">
<stop stop-color="#025962"/>
<stop offset="1" stop-color="#026D77"/>
</linearGradient>
<linearGradient id="paint3_linear_31_6331" x1="7.07139" y1="7.50018" x2="18.2143" y2="13.7145" gradientUnits="userSpaceOnUse">
<stop stop-color="#02BFC5"/>
<stop offset="1" stop-color="#01678D"/>
</linearGradient>
<clipPath id="clip0_31_6331">
<rect width="24" height="24" fill="white"/>
</clipPath>
</defs>
</svg>

<svg xmlns="http://www.w3.org/2000/svg" width="24" height="24" fill="none" viewBox="0 0 24 24"><g clip-path="url(#a)"><path fill="url(#b)" d="M0 0h24v24H0z"/><path fill="url(#c)" fill-rule="evenodd" d="M12 16.715a4.714 4.714 0 1 0 0-9.43 4.714 4.714 0 0 0 0 9.43m0 2.142a6.857 6.857 0 1 0 0-13.714 6.857 6.857 0 0 0 0 13.714" clip-rule="evenodd"/><path fill="#005257" d="M15.994 14.507a.7.7 0 0 0 .292.064l.291.009c.836.043 2.07.099 2.259-2.01q.02-.282.021-.57h-2.143a4.7 4.7 0 0 1-.72 2.507m-10.508-.364c.287.257.724.428 1.371.428a5 5 0 0 0 1.119-.115A4.7 4.7 0 0 1 7.286 12H5.143c0 .75.12 1.47.343 2.143"/><path fill="url(#d)" d="M15.377 13.745c1.316.745 3.206.702 3.416-.793a6.857 6.857 0 1 0-13.586 0c.21 1.495 2.1 1.543 3.416.793a6.83 6.83 0 0 1 6.754 0"/><path fill="#005560" d="M9 12c-1.371-.343-2.571-2.143-3-3v1.929l1.714 2.357z"/><path fill="url(#e)" d="M16.02 11.593c.308.159.686-.056.626-.394a4.714 4.714 0 0 0-9.3.068c-.056.326.3.536.591.386A8.7 8.7 0 0 1 12 10.714c1.491 0 2.863.292 4.02.879m2.773 1.359c-.21 1.495-2.1 1.543-3.416.793a6.83 6.83 0 0 0-6.754 0c-1.316.745-3.206.702-3.416-.793a6.857 6.857 0 1 1 13.586 0"/></g><defs><linearGradient id="b" x1="4.466" x2="29.207" y1="4.161" y2="32.58" gradientUnits="userSpaceOnUse"><stop stop-color="#1A1E21"/><stop offset="1" stop-color="#06060A"/></linearGradient><linearGradient id="c" x1="7.5" x2="16.5" y1="6.857" y2="17.357" gradientUnits="userSpaceOnUse"><stop stop-color="#025A63"/><stop offset=".56" stop-color="#026E7A"/><stop offset="1" stop-color="#065270"/></linearGradient><linearGradient id="d" x1="8.571" x2="16.928" y1="6.429" y2="13.5" gradientUnits="userSpaceOnUse"><stop stop-color="#025962"/><stop offset="1" stop-color="#026D77"/></linearGradient><linearGradient id="e" x1="7.071" x2="18.214" y1="7.5" y2="13.714" gradientUnits="userSpaceOnUse"><stop stop-color="#02BFC5"/><stop offset="1" stop-color="#01678D"/></linearGradient><clipPath id="a"><path fill="#fff" d="M0 0h24v24H0z"/></clipPath></defs></svg>
